img/product-flower-4.svg

<svg width="135" height="127" viewBox="0 0 135 127" fill="none" xmlns="http://www.w3.org/2000/svg">
<path d="M45.1215 0H32.7352L26.5421 3.53894L23.0031 7.96262L19.4642 15.0405L16.81 25.6573V38.0436H15.0405L9.73209 40.6978L3.53894 47.7757L0 59.2773V74.3178L1.76947 83.1652L7.07789 95.5515L11.5016 102.629L21.2337 112.361L30.9658 118.555L39.8131 122.094L53.0841 125.632L63.701 126.517L69.8941 125.632H74.3178L87.5888 121.209L96.4362 117.67L101.745 114.131L111.477 107.938L120.324 99.0904L127.402 90.2431L131.826 81.3957L134.48 72.5483V57.5078L132.71 52.1994L127.402 45.1215L119.439 40.6978L114.131 39.8131L115.016 37.1589V22.1184L114.131 17.6947L111.477 11.5016L104.399 3.53894L99.0904 0.884736H90.2431L81.3957 4.42368L72.5483 11.5016L70.7789 15.9252H69.0094L67.2399 19.4642H65.4704L62.8162 14.1558H61.0468V12.3863L53.9689 5.30841L45.1215 0Z" fill="#F0C960"/>
<path d="M66.3552 30.0811L75.2025 31.8505L82.2804 35.3895L91.1278 43.3521L90.243 46.891L85.8193 51.3147L79.6262 59.2773L73.433 72.5484L69.0094 88.4736L68.1246 93.782H66.3552L62.8162 78.7415L57.5078 65.4705L51.3146 55.7384L50.4299 53.0842H48.6604L42.4673 46.0063L43.352 42.4674L46.891 38.0437L54.8536 32.7353L60.162 30.9658L66.3552 30.0811Z" fill="#FCFCFC"/>
</svg>

<svg width="135" height="127" fill="none" xmlns="http://www.w3.org/2000/svg"><path d="M45.121 0H32.736l-6.193 3.539-3.539 4.424-3.539 7.077-2.654 10.617v12.387h-1.77l-5.308 2.654-6.193 7.078L0 59.277v15.04l1.77 8.848 5.308 12.386 4.424 7.078 9.732 9.732 9.732 6.194 8.847 3.539 13.271 3.538 10.617.885 6.193-.885h4.424l13.27-4.423 8.848-3.539 5.309-3.539 9.732-6.193 8.847-8.848 7.078-8.847 4.424-8.847 2.654-8.848v-15.04l-1.77-5.309-5.308-7.078-7.963-4.423-5.308-.885.885-2.654v-15.04l-.885-4.424-2.654-6.193-7.078-7.963L99.09.885h-8.847l-8.847 3.539-8.848 7.078-1.77 4.423H69.01l-1.77 3.54h-1.77l-2.654-5.31h-1.77v-1.769L53.97 5.308 45.12 0z" fill="#F0C960"/><path d="M66.355 30.081l8.847 1.77 7.078 3.538 8.848 7.963-.885 3.539-4.424 4.424-6.193 7.962-6.193 13.271-4.424 15.926-.884 5.308h-1.77l-3.539-15.04-5.308-13.272-6.193-9.732-.885-2.654h-1.77l-6.193-7.078.885-3.539 3.539-4.423 7.963-5.309 5.308-1.77 6.193-.884z" fill="#FCFCFC"/></svg>
